static/logos/forethought-glyph-color.svg

<svg width="39" height="50" viewBox="0 0 39 50" fill="none" xmlns="http://www.w3.org/2000/svg">
<g clip-path="url(#clip0_1_2727)">
<path fill-rule="evenodd" clip-rule="evenodd" d="M13.5297 34.238C13.527 44.5886 13.5204 44.6993 12.816 46.2121C11.195 49.6929 7.36968 50.9312 3.87623 49.1063C2.70525 48.4945 2.02159 47.8674 1.36139 46.7999C1.36139 46.7999 0.74577 46.0345 0.454966 45.3336C0.164161 44.6328 0.0632552 41.4635 0.0561144 38.9757C0.0486314 36.3686 0.0561144 33.6207 0.454966 32.3117C0.651189 31.6678 1.36139 30.8455 1.36139 30.8455C2.51975 28.972 4.78175 27.699 6.95295 27.699H8.42186V29.6532V31.6074H7.50496C6.3941 31.6074 4.95582 32.3081 4.70028 32.9738C4.59776 33.2413 4.51359 35.9423 4.51359 38.9757C4.51359 38.9757 4.17221 43.6886 4.51359 44.2868C4.85496 44.885 5.30577 45.1142 5.30577 45.1142C6.3556 45.9403 7.58422 46.004 8.61933 45.1142C8.61933 45.1142 8.87795 44.9817 9.33772 44.2868C9.79749 43.5919 9.56071 34.0389 9.56071 34.0389L9.64726 23.7908H11.59H13.5327L13.5297 34.238Z" fill="url(#paint0_linear_1_2727)"/>
<path fill-rule="evenodd" clip-rule="evenodd" d="M8.42492 11.3144C8.42492 13.1654 8.38768 13.2685 7.71814 13.2685C6.60159 13.2685 5.13236 13.8821 4.81097 14.4828C4.28155 15.4719 4.46704 17.0256 5.19639 17.7107C5.85837 18.3325 6.15033 18.3517 16.2539 18.4395C16.2539 18.4395 24.2258 18.6119 25.7488 18.7357C27.2718 18.8595 28.1231 19.2978 28.1231 19.2978C30.2098 20.3723 31.348 22.0715 31.5134 24.3588C31.6694 26.5149 31.2149 28.0037 29.9666 29.4257C28.2422 31.3898 27.3721 31.5933 20.676 31.6009L14.7384 31.6075V29.6533V27.6991H20.3233C20.3233 27.6991 25.2158 27.732 25.7488 27.5288C26.2819 27.3256 26.787 26.8204 26.787 26.8204C27.8258 25.7817 27.9415 24.4989 27.0916 23.4484C27.0916 23.4484 26.674 23.0814 26.0649 22.9311C25.4558 22.7807 15.8685 22.5883 15.8685 22.5883C15.8685 22.5883 7.19826 22.7058 5.46148 22.1552C3.72469 21.6047 3.75393 21.5316 3.75393 21.5316C-0.0485483 19.1791 -0.454409 13.6834 2.96536 10.8544C4.22473 9.81236 5.32627 9.42603 7.14722 9.38724L8.42492 9.36023V11.3144Z" fill="url(#paint1_linear_1_2727)"/>
<path fill-rule="evenodd" clip-rule="evenodd" d="M33.5724 0.488346C35.2634 0.990712 36.9157 2.41544 37.6839 4.03438C38.7584 6.29849 38.0684 9.76636 36.1943 11.5239C34.4105 13.1966 33.9037 13.2685 23.9149 13.2685H14.7359V11.3143V9.36021H23.3191C33.5841 9.36021 33.9767 9.25918 33.9767 6.61625C33.9767 6.0709 33.2387 4.9874 33.2387 4.9874C33.2387 4.9874 33.0756 4.79531 32.3555 4.45406C31.6355 4.11282 23.8437 4.25895 23.8437 4.25895C17.5129 4.26587 15.0587 4.36688 14.7097 4.63475C13.6716 5.43204 13.5333 6.26694 13.5333 11.7454V17.1768H11.5791H9.625V11.1295C9.625 5.18913 9.63885 5.05715 10.4052 3.64896C11.298 2.00868 12.4997 1.01596 14.2609 0.464595C16.1498 -0.126761 31.5647 -0.10782 33.5724 0.488346Z" fill="url(#paint2_linear_1_2727)"/>
</g>
<defs>
<linearGradient id="paint0_linear_1_2727" x1="6.7937" y1="23.7908" x2="6.7937" y2="49.9448" gradientUnits="userSpaceOnUse">
<stop stop-color="#C539F8"/>
<stop offset="1" stop-color="#913FF3"/>
</linearGradient>
<linearGradient id="paint1_linear_1_2727" x1="2.50171" y1="11.4368" x2="29.5132" y2="31.0633" gradientUnits="userSpaceOnUse">
<stop stop-color="#348EF6"/>
<stop offset="0.65625" stop-color="#2AD4E6"/>
<stop offset="1" stop-color="#4AA3EB"/>
</linearGradient>
<linearGradient id="paint2_linear_1_2727" x1="9.5969" y1="13.0173" x2="28.7923" y2="7.7874" gradientUnits="userSpaceOnUse">
<stop stop-color="#9B19FF"/>
<stop offset="1" stop-color="#3378F0"/>
</linearGradient>
<clipPath id="clip0_1_2727">
<rect width="38.2184" height="50" fill="white"/>
</clipPath>
</defs>
</svg>

<svg xmlns="http://www.w3.org/2000/svg" width="49.92" height="64" fill="none" viewBox="0 0 39 50"><g fill-rule="evenodd" clip-path="url(#a)" clip-rule="evenodd"><path fill="url(#b)" d="M13.53 34.238c-.003 10.35-.01 10.461-.714 11.974-1.621 3.48-5.446 4.72-8.94 2.894-1.17-.611-1.854-1.239-2.515-2.306 0 0-.615-.765-.906-1.466-.29-.701-.392-3.87-.399-6.358-.007-2.607 0-5.355.399-6.664.196-.644.906-1.466.906-1.466 1.159-1.874 3.42-3.147 5.592-3.147h1.469v3.908h-.917c-1.11 0-2.55.701-2.805 1.367-.102.267-.186 2.968-.186 6.002 0 0-.342 4.713 0 5.31.341.599.792.828.792.828 1.05.826 2.278.89 3.313 0 0 0 .259-.132.719-.827.46-.695.223-10.248.223-10.248l.086-10.248h3.886l-.003 10.447Z"/><path fill="url(#c)" d="M8.425 11.314c0 1.851-.037 1.954-.707 1.954-1.116 0-2.586.614-2.907 1.215-.53.989-.344 2.543.385 3.228.662.622.954.64 11.058.729 0 0 7.972.172 9.495.296 1.523.123 2.374.562 2.374.562 2.087 1.074 3.225 2.774 3.39 5.06.156 2.157-.298 3.646-1.546 5.068-1.725 1.964-2.595 2.167-9.291 2.175l-5.938.007v-3.909h5.585s4.893.033 5.426-.17c.533-.203 1.038-.709 1.038-.709 1.039-1.038 1.155-2.321.305-3.372 0 0-.418-.367-1.027-.517-.61-.15-10.197-.343-10.197-.343s-8.67.118-10.407-.433c-1.736-.55-1.707-.623-1.707-.623-3.803-2.353-4.208-7.849-.789-10.678 1.26-1.042 2.361-1.428 4.182-1.467l1.278-.027v1.954Z"/><path fill="url(#d)" d="M33.572.488c1.691.503 3.344 1.927 4.112 3.546 1.074 2.264.384 5.732-1.49 7.49-1.784 1.673-2.29 1.745-12.28 1.745h-9.178V9.36h8.583c10.265 0 10.658-.1 10.658-2.744 0-.545-.738-1.629-.738-1.629s-.163-.192-.883-.533-8.512-.195-8.512-.195c-6.331.007-8.785.108-9.134.376-1.038.797-1.177 1.632-1.177 7.11v5.432H9.625V11.13c0-5.94.014-6.073.78-7.481.893-1.64 2.095-2.633 3.856-3.184 1.889-.592 17.304-.573 19.311.023Z"/></g><defs><linearGradient id="b" x1="6.794" x2="6.794" y1="23.791" y2="49.945" gradientUnits="userSpaceOnUse"><stop stop-color="#C539F8"/><stop offset="1" stop-color="#913FF3"/></linearGradient><linearGradient id="c" x1="2.502" x2="29.513" y1="11.437" y2="31.063" gradientUnits="userSpaceOnUse"><stop stop-color="#348EF6"/><stop offset=".656" stop-color="#2AD4E6"/><stop offset="1" stop-color="#4AA3EB"/></linearGradient><linearGradient id="d" x1="9.597" x2="28.792" y1="13.017" y2="7.787" gradientUnits="userSpaceOnUse"><stop stop-color="#9B19FF"/><stop offset="1" stop-color="#3378F0"/></linearGradient><clipPath id="a"><path fill="#fff" d="M0 0h38.218v50H0z"/></clipPath></defs></svg>
